svg/file/link_fill.svg

<?xml version="1.0" encoding="UTF-8"?>
<svg width="24px" height="24px" viewBox="0 0 24 24" version="1.1" xmlns="http://www.w3.org/2000/svg" xmlns:xlink="http://www.w3.org/1999/xlink">
    <title>link_fill</title>
    <g id="页面-1" stroke="none" stroke-width="1" fill="none" fill-rule="evenodd">
        <g id="File" transform="translate(-720.000000, -48.000000)" fill-rule="nonzero">
            <g id="link_fill" transform="translate(720.000000, 48.000000)">
                 <path d="M24,0 L24,24 L0,24 L0,0 L24,0 Z M12.5934901,23.257841 L12.5819402,23.2595131 L12.5108777,23.2950439 L12.4918791,23.2987469 L12.4918791,23.2987469 L12.4767152,23.2950439 L12.4056548,23.2595131 C12.3958229,23.2563662 12.3870493,23.2590235 12.3821421,23.2649074 L12.3780323,23.275831 L12.360941,23.7031097 L12.3658947,23.7234994 L12.3769048,23.7357139 L12.4804777,23.8096931 L12.4953491,23.8136134 L12.4953491,23.8136134 L12.5071152,23.8096931 L12.6106902,23.7357139 L12.6232938,23.7196733 L12.6232938,23.7196733 L12.6266527,23.7031097 L12.609561,23.275831 C12.6075724,23.2657013 12.6010112,23.2592993 12.5934901,23.257841 L12.5934901,23.257841 Z M12.8583906,23.1452862 L12.8445485,23.1473072 L12.6598443,23.2396597 L12.6498822,23.2499052 L12.6498822,23.2499052 L12.6471943,23.2611114 L12.6650943,23.6906389 L12.6699349,23.7034178 L12.6699349,23.7034178 L12.678386,23.7104931 L12.8793402,23.8032389 C12.8914285,23.8068999 12.9022333,23.8029875 12.9078286,23.7952264 L12.9118235,23.7811639 L12.8776777,23.1665331 C12.8752882,23.1545897 12.8674102,23.1470016 12.8583906,23.1452862 L12.8583906,23.1452862 Z M12.1430473,23.1473072 C12.1332178,23.1423925 12.1221763,23.1452606 12.1156365,23.1525954 L12.1099173,23.1665331 L12.0757714,23.7811639 C12.0751323,23.7926639 12.0828099,23.8018602 12.0926481,23.8045676 L12.108256,23.8032389 L12.3092106,23.7104931 L12.3186497,23.7024347 L12.3186497,23.7024347 L12.3225043,23.6906389 L12.340401,23.2611114 L12.337245,23.2485176 L12.337245,23.2485176 L12.3277531,23.2396597 L12.1430473,23.1473072 Z" id="MingCute" fill-rule="nonzero"></path>
                <path d="M17.3034,9.52412 L20.4854,12.7061 C22.6333,14.854 22.6333,18.3364 20.4854,20.4843 C18.3375,22.6322 14.8551,22.6322 12.7072,20.4843 L11.6466,19.4236 C11.0608,18.8378 11.0608,17.8881 11.6466,17.3023 C12.2323,16.7165 13.1821,16.7165 13.7679,17.3023 L14.8285,18.363 C15.8048,19.3393 17.3878,19.3393 18.3641,18.363 C19.3404,17.3866 19.3404,15.8037 18.3641,14.8274 L15.1821,11.6454 C14.4572,10.9205 13.3978,10.7339 12.5007,11.0854 C12.3394333,11.1486 12.1888778,11.2154 12.0467815,11.2810889 L11.5834169,11.4976131 C10.9633037,11.7781699 10.4855812,11.8986941 9.87869,11.2919 C9.00659,10.4198 9.2329,9.61462 10.2964,8.88115 C12.4392,7.40338 15.397,7.6177 17.3034,9.52412 Z M11.2929,3.51374 L12.3536,4.57441 C12.9393,5.16019 12.9393,6.10994 12.3536,6.69573 C11.7678,7.28151 10.818,7.28151 10.2322,6.69573 L9.17158,5.63507 C8.19526,4.65875 6.61235,4.65875 5.63604,5.63507 C4.65973,6.61138 4.65973,8.19429 5.63604,9.1706 L8.81802,12.3526 C9.54291,13.0775 10.6023,13.2642 11.4994,12.9126 C11.6606667,12.8494 11.8112222,12.7826444 11.9533185,12.7169852 L12.4166831,12.5004558 C13.0367962,12.2198315 13.5145176,12.0993176 14.1214,12.7062 C14.9935,13.5782 14.7672,14.3834 13.7037,15.1169 C11.5609,16.5946 8.60312,16.3803 6.6967,14.4739 L3.51472,11.2919 C1.36684,9.14404 1.36684,5.66163 3.51472,3.51374 C5.6626,1.36586 9.14501,1.36586 11.2929,3.51374 Z" id="形状" fill="#09244B"></path>
            </g>
        </g>
    </g>
</svg>

<svg xmlns="http://www.w3.org/2000/svg" width="24" height="24"><g fill="none" fill-rule="nonzero"><path d="M24 0v24H0V0h24ZM12.593 23.258l-.011.002-.071.035-.02.004-.014-.004-.071-.035c-.01-.004-.019-.001-.024.005l-.004.01-.017.428.005.02.01.013.104.074.015.004.012-.004.104-.074.012-.016.004-.017-.017-.427c-.002-.01-.009-.017-.017-.018Zm.265-.113-.013.002-.185.093-.01.01-.003.011.018.43.005.012.008.007.201.093c.012.004.023 0 .029-.008l.004-.014-.034-.614c-.003-.012-.01-.02-.02-.022Zm-.715.002a.023.023 0 0 0-.027.006l-.006.014-.034.614c0 .012.007.02.017.024l.015-.002.201-.093.01-.008.004-.011.017-.43-.003-.012-.01-.01-.184-.092Z"/><path fill="#09244B" d="m17.303 9.524 3.182 3.182a5.5 5.5 0 1 1-7.778 7.778l-1.06-1.06a1.5 1.5 0 1 1 2.12-2.122l1.062 1.061a2.5 2.5 0 0 0 3.535-3.536l-3.182-3.182a2.5 2.5 0 0 0-2.681-.56c-.162.064-.312.13-.454.196l-.464.217c-.62.28-1.097.4-1.704-.206-.872-.872-.646-1.677.417-2.41a5.502 5.502 0 0 1 7.007.642Zm-6.01-6.01 1.06 1.06a1.5 1.5 0 0 1-2.12 2.122l-1.061-1.06A2.5 2.5 0 1 0 5.636 9.17l3.182 3.182a2.5 2.5 0 0 0 2.681.56c.162-.064.312-.13.454-.196l.464-.217c.62-.28 1.098-.4 1.704.206.872.872.646 1.677-.417 2.41a5.502 5.502 0 0 1-7.007-.642l-3.182-3.182a5.5 5.5 0 1 1 7.778-7.778Z"/></g></svg>
